!!!!SEGMENT: pl-wtm--iii-40-856-1--002_wysocki-kasper-napoleon--quatre-krakowiaks-op-1-krakowiak-no-2.krn
!!!cenid: 18xx:4378
!!!COM: Wysocki, Kasper Napoleon
!!!COM-rismID: pe41024789
!!!CDT: 1810/12/06-1850/09/21
!!!CNT: Polish
!!!GTL: Quatre Krakowiaks op. 1
!!!OTL: Krakowiak. No. 2.
!!!OMV: 002
!!!PDT:
!!!AGN:
!!!SMS-siglum: PL-Wtm
!!!SMS-shelfmark: III.40.856/1
!!!SMS-shelfwork: 001-002 G
!!!SMS-variant:
!!!SMS-altvar:
!!!NIFC-rismSourceID: 1001153066
!!!NIFC-rismChildID: 1001153066
!!!NIFC-islandoraID: pl-wtm:13649
!!!URL-pdf-islandora: https://repozytorium.nifc.pl/islandora/object/pl-wtm:13649/datastream/PDF/view
!!!URL-scan: https://polish.musicsources.pl/pl/lokalizacje/galeria/druki-muzyczne/16672/4 @EN{Scan on Polish Music Sources Website} @PL{Skany w portalu Dziedzictwo Muzyki Polskiej w otwartym dostępie}
!!!ONB-nifc: UWAGA: skan 4.
!!!OMD: Moderato con grazia.
!!!AIN: 1 piano
!!!key:
**kern	**kern	**dynam
*part1	*part1	*part1
*staff2	*staff1	*
*	*I"Piano	*
*	*I'pf	*
*	*Ipiano	*
*	*ICklav	*
*	*IGsolo	*
*clefF4	*clefG2	*
*k[f#c#]	*k[f#c#]	*
*D:	*D:	*
*M2/4	*M2/4	*
*MM96	*MM96	*
8r	(<16a/LL	p
.	16a/JJ	.
=1	=1	=1
*ped	*	*
8AAA'/	8a'\L)	.
.	8qa/	>
8A\L 8c# 8g	(8gg\	.
8A\ 8c# 8g	8.ff#\	.
*Xped	*	*
8A\J 8c# 8g	.	.
.	16ee\Jk	]]
=2	=2	=2
*ped	*	*
8D'\	8dd'\)	.
8A\L 8d 8f#	4a^^/	.
8A\J 8d 8f#	.	.
*Xped	*	*
8r	(16a/LL	.
.	16a/JJ	.
=3	=3	=3
*ped	*	*
8AA/	8a'/L)	.
.	8qa/	.
8A\L 8c#> 8g>	(8gg/	.
8A\ 8c#> 8g>	8.ff#/	.
*Xped	*	*
8A\J 8c#> 8g>	.	.
.	16ee/Jk	.
=4	=4	=4
*ped	*	*
8D'\	8dd'\)	.
8A\L 8d 8f#	4a^^/	.
8A\J 8d 8f#	.	.
*Xped	*	*
8r	(16f#/LL	.
.	16f#/JJ	.
=5	=5	=5
*ped	*	*
8FF#/	8f#'/L)	.
!	!LO:TX:a:t=senza rigore	!
.	8qf#/	.
8F#\L 8A#X 8e>	(>8ee/	.
8F#\ 8A# 8e>	8.dd/	.
*Xped	*	*
8F#\J 8A# 8e>	.	.
.	16cc#/Jk	.
=6	=6	=6
*ped	*	*
8BB/	8b/)	.
8F#\L 8B 8d	4f#^>/	.
8F#\J 8B 8d	.	.
*Xped	*	*
8r	(8fn/	.
!!LO:LB:g=original
=7	=7	=7
*ped	*	*
8EE'/	8e'/)	.
.	8qe/	.
8E\L 8G#X 8d	(8dd\L	.
8E\ 8G# 8d	8.cc#\	.
*Xped	*	*
8E\J 8G# 8d	.	.
.	16b\Jk)	.
=8	=8	=8
8AA/	(8b/L	.
8E\L 8A 8c#	8a/J)	.
8E\J 8A 8c#	8r	.
8r	(16a/LL	.
.	16a/JJ	.
=9	=9	=9
*ped	*	*
8AAA/	8a'/L)	.
.	8qa/	.
8A\L 8c#> 8g>	(8gg/	.
8A\ 8c#> 8g>	8.ff#/	.
*Xped	*	*
8A\J 8c#> 8g>	.	.
.	16ee/Jk	.
=10	=10	=10
*ped	*	*
8D\	8dd'\)	.
8A\L 8d 8f#	4a^^/	.
8A\J 8d 8f#	.	.
*Xped	*	*
8r	16a/LL	.
.	16a/JJ	.
=11	=11	=11
*ped	*	*
8AA/	8a'/L	.
.	8qa/	.
8A\L 8c#> 8g>	(8gg/	.
8A\ 8c#> 8g>	8.ff#/	.
*Xped	*	*
8A\J 8c#> 8g>	.	.
.	16ee/Jk	.
=12	=12	=12
*ped	*	*
8D\	8dd'\)	.
8A\L 8d 8f#	4a^^/	.
8A\J 8d 8f#	.	.
*Xped	*	*
8r	(16f#/LL	.
.	16f#/JJ	.
=13	=13	=13
*ped	*	*
8FF#/	8f#'/L)	.
.	8qf#/	.
8F#\L 8A#X 8e>	(>8ee/	.
8F#\ 8A# 8e>	8.dd/	.
*Xped	*	*
8F#\J 8A# 8e>	.	.
.	16cc#/Jk	.
=14	=14	=14
*ped	*	*
8BB/	8b'/)	.
8F#\L 8B 8d	(4f#^^/	.
8F#\J 8B 8d	.	.
*Xped	*	*
8r	8fn/	.
!!LO:LB:g=original
=15	=15	=15
*ped	*	*
8EE'/	8e'/L)	.
.	8qe/	.
8E\L 8G#X 8d	(8dd/	.
8E\ 8G# 8d	8.cc#/	.
*Xped	*	*
8E\J 8G# 8d	.	.
.	16b/Jk)	.
=16	=16	=16
8AA/	(8b/L	.
8E\L 8A 8c#	8a/J)	.
8E\J 8A 8c#	8r	.
!	!	!LO:DY:a
8r	(8a/	f
=17	=17	=17
*^	*	*
!	!	!LO:TX:a:t=affabile.	!
8ryy	8FF#/	8a#X/L	.
!	!	!	!LO:HP:b=2
8A#X/L	4.F#\	8f#/	>
8B/	.	8g#X/	.
8c#/J	.	8a#/J)	]]
=18	=18	=18	=18
.	.	16qqa#X/	.
8r	8r	8cc#\	.
!	!	!	!LO:HP:b=2
(8d/L	4.F#\	(4.b^^\	>
8c#/	.	.	.
8B/J)	.	.	]]
=19	=19	=19	=19
8ryy	8FF#/	(8cc#'\L)	.
.	.	8qcc#/	.
!	!	!	!LO:HP:b=2
(8e/L	4.F#\	8gg\	>
8d/	.	8.ff#\	.
8c#/J)	.	.	.
.	.	16ee\Jk	]]
=20	=20	=20	=20
8r	8r	8ee\	.
!	!	!	!LO:HP:b=2
(8f#/L	4.B\	4dd\)	>
8e/	.	.	.
8d/J)	.	8r	]
=21	=21	=21	=21
!	!	!LO:TX:a:t=dolce.	!LO:DY:a
8ryy	8EE/	(8g#X/L	p
(8G#X/L	4.E\	8e/	.
8A/	.	8f#/	.
8B/J)	.	8g#/J)	.
!!LO:LB:g=original
=22	=22	=22	=22
.	.	8qg#X/	.
8r	8r	8b/	.
(8c#/L	4.E\	4.a/	.
8B/	.	.	.
8A/J)	.	.	.
=23	=23	=23	=23
8ryy	8EE/	(8b\L	.
.	.	8qb/	.
(8d/L	4.E\	8ff#\	.
8c#/	.	8.ee\	.
8B/J)	.	.	.
.	.	16g#X\Jk	.
=24	=24	=24	=24
8r	8r	8b\)	.
(8c#/L	4.A\	4a/	.
8B/	.	.	.
8A/J)	.	(<16a/LL	.
.	.	16a/JJ	.
*v	*v	*	*
=25	=25	=25
*ped	*	*
8AAA'/	8a'\L)	f
.	8qa/	>
8A\L 8c# 8g	(8gg\	.
8A\ 8c# 8g	8.ff#\	.
*Xped	*	*
8A\J 8c# 8g	.	.
.	16ee\Jk	]]
=26	=26	=26
*ped	*	*
8D'\	8dd'\)	.
8A\L 8d 8f#	4a^^/	.
8A\ 8d 8f#	.	.
*Xped	*	*
8A\J 8d 8f#	(16a/LL	.
.	16a/JJ	.
=27	=27	=27
*ped	*	*
8AA/ 8A	8a/L)	.
.	8qa/	.
8A\L 8c#> 8g>	(8gg/	.
8A\ 8c#> 8g>	8.ff#/	.
*Xped	*	*
8A\J 8c#> 8g>	.	.
.	16ee/Jk	.
=28	=28	=28
*ped	*	*
8D\L 8d	8dd'\)	.
8A\ 8d 8f#	4a^^/	.
8A\ 8d 8f#	.	.
*Xped	*	*
8A\J 8d 8f#	(16a/LL	.
.	16a/JJ	.
!!LO:LB:g=original
=29	=29	=29
*ped	*	*
8AA/ 8A	8a/L)	.
.	8qa/	.
8A\L 8c#> 8g>	(>8gg/	.
8A\ 8c#> 8g>	8.ff#/	.
*Xped	*	*
8A\J 8c#> 8g>	.	.
.	16ee/Jk)	.
=30	=30	=30
*^	*	*
*ped	*	*	*
8ryy	8GG#X/	8dd\	.
.	.	(8qdd/	.
(16B/LL	4G#X\	4dd^^\) 4ddd	.
16c#/J	.	.	.
8d/	.	.	.
16e/L	8ryy	16cc#\LL 16ccc#	.
*Xped	*	*	*
16e#X/JJ)	.	16b\JJ 16bb	.
*v	*v	*	*
=31	=31	=31
*	*^	*
!LO:TX:t=P:problem=mixed beam	!	!	!
.	.	(8qa/	.
8A'\L 8d 8f#	(8.bb/L	4.a\)	.
8AA'/J	.	.	.
.	16aa/K	.	.
!LO:TX:t=P:problem=mixed beam	!	!	!
8A'\L 8c# 8gn	8gg/)	.	.
8AA'/J	16re	16rff	.
.	16ee/Jk	16g\	.
*	*v	*v	*
=32	=32	=32
(8D\L 8d	(8g\L 8ee	.
8DD\J) 8D	8f#\J) 8dd	.
4r	4r	.
=33||	=33||	=33||
.	16qqcc#/	p
*^	*	*
*ped	*	*	*
8r	2GG\	2bT\ 2dd	.
8D/L 8B	.	.	.
8D/ 8B	.	.	.
8D/J 8B	.	.	.
!	!	!LO:TX:a:t=leggiermente.	!
.	.	(16qqcc#/LL	.
.	.	16qqdd/JJ	.
=34	=34	=34	=34
8GG\L	4GG/	8gg'\L)	.
.	.	16qqdd/LL	.
.	.	16qqee/JJ	.
*Xped	*	*	*
8D\J 8B	.	(8dd\	.
8GG\L	4GG/	8.ccn\	.
8Cn\J 8E-X 8A	.	.	.
.	.	16a\Jk	.
=35	=35	=35	=35
8GG\L	4GG/	8g'/L)	.
8D\J 8B	.	16d/L	.
.	.	(16d/JJ	.
8GG\L	4GG/	8.a/L	.
8Cn\J 8D 8A	.	.	.
.	.	16d/JJk	.
!!LO:PB:g=original
=36	=36	=36	=36
8r	2GG\	8b/L	.
8D/L 8B	.	8g/J)	.
8D/ 8B	.	4r	.
8D/J 8B	.	.	.
=37	=37	=37	=37
.	.	16qqcc#/	.
*ped	*	*	*
8r	2GG\	2bT\ 2dd	.
8D/L 8B	.	.	.
8D/ 8B	.	.	.
8D/J 8B	.	.	.
.	.	16qqcc#/LL	.
.	.	16qqdd/JJ	.
=38	=38	=38	=38
.	.	(>16qqdd/	.
8GG\L	4GG/	8.ddd'\L)	.
*Xped	*	*	*
8D\J 8B	.	.	.
!	!	!LO:TX:a:t=leggierissimo.	!
.	.	(16bb\Jk	.
8BB\L 8D 8G	4ryy	16gg\LL	.
.	.	16dd\	.
8Cn\J 8E 8A	.	32ff#\L	.
.	.	32ee\	.
.	.	32ccn\	.
.	.	32a\JJJ	.
*v	*v	*	*
=39	=39	=39
8r	8g'/L)	.
8D\ 8G 8B	(16d/L	.
.	16d/JJ	.
8r	8a/L)	.
.	(8qa/	.
(8D\ 8F# 8cn	(8dd/J)	.
=40	=40	=40
8G'\) 8B	8g'/)	.
8GG/L 8D 8G	4.B/ 4.g	.
8GG/ 8D 8G	.	.
8GG/J 8D 8G	.	.
=41	=41	=41
.	16qqcc#/	.
*^	*	*
*ped	*	*	*
8r	2GG\	2bT\ 2dd	.
8D/L 8B	.	.	.
8D/ 8B	.	.	.
8D/J 8B	.	.	.
.	.	16qqcc#/LL	.
.	.	16qqdd/JJ	.
=42	=42	=42	=42
.	.	(>16qqb/	.
8GG\L	4GG/	8gg'\L)	.
*Xped	*	*	*
8D\J 8B	.	(16dd\L	.
.	.	16g\JJ)	.
.	.	(16qqf#/	.
8GG\L	4GG/	8ccn/L)	.
8Cn\J 8E-X 8A	.	(16a/L	.
.	.	16cn/JJ)	.
!!LO:LB:g=original
=43	=43	=43	=43
*	*	*^	*
8GG\L	4GG/	8gT/L	4B\	.
8D\J 8G	.	8d/J	.	.
8GG\L	4GG/	8.a:/L	4cn:\	.
8D\J 8A	.	.	.	.
.	.	16d/Jk	.	.
=44	=44	=44	=44	=44
.	.	.	(8qB/	.
8r	2GG\	(<8b/	4.B\)	.
8D/L 8G	.	4g/)	.	.
8D/ 8G	.	.	.	.
8D/J 8G	.	8r	8ryy	.
*	*	*v	*v	*
=45	=45	=45	=45
.	.	16qqcc#/	.
*ped	*	*	*
8r	2GG\	(<2bT\ 2dd	.
8D/L 8B	.	.	.
8D/ 8B	.	.	.
8D/J 8B	.	.	.
.	.	16qqcc#/LL	.
.	.	16qqdd/JJ)	.
=46	=46	=46	=46
.	.	(>8qdd/	.
8GG\L	4GG/	(8.ddd'\L)	.
8D\J 8B	.	.	.
.	.	16bb\Jk	.
*Xped	*	*	*
8BB\L 8D 8G	4ryy	16gg\LL	.
.	.	16dd\	.
8Cn\J 8E 8A	.	32ff#\L	.
.	.	32ee\	.
.	.	32ccn\	.
.	.	32a\JJJ)	.
*v	*v	*	*
=47	=47	=47
*	*^	*
8r	8gT/L	8B\	.
8D\ 8G 8B	8d/J	4.ryy	.
.	(<16qqd/	.	.
8r	8a'</L)	.	.
.	16qqa/	.	.
(8D\ 8F# 8cn	(<8dd/J	.	.
*	*v	*v	*
=48	=48	=48
8G\) 8B	8g'/)	.
.	(16qqB/	.
8GG/L 8D 8G	4B/) 4g	.
8GG/J 8D 8G	.	.
8r	(8g/	p
!!LO:LB:g=original
=49||	=49||	=49||
!	!LO:TX:a:t=misterioso.	!
8r	8f#/L	.
8BB\L 8D#X 8A	8B/J	.
8BB\ 8D# 8A	8.a/L	.
8BB\J 8D# 8A	.	.
.	16f#/JJk)	.
=50	=50	=50
8r	(8g/L	.
8BB\L 8E 8G	8e/J)	.
8BB\ 8E 8G	8.r	.
8BB\J 8E 8G	.	.
.	(16g/	.
=51	=51	=51
8r	8f#/L	.
8BB\L 8D#X 8A	8B/	.
8BB\ 8D# 8A	8.b/	.
8BB\J 8D# 8A	.	.
.	16a/Jk	.
=52	=52	=52
8r	8g/L	.
8E\L 8G	8e/J)	.
8E\ 8G	8.r	.
8E\J 8G	.	.
.	(16d#X/	.
=53	=53	=53
8r	8e/L	.
8AA\L 8C# 8G	8A/	.
8AA\ 8C# 8G	8.g/	.
8AA\J 8C# 8G	.	.
.	16e/Jk	.
=54	=54	=54
8r	8f#/L	.
8AA/L 8D 8F#	8d/J)	.
8AA/ 8D 8F#	8.r	.
8AA/J 8D 8F#	.	.
.	(16d/	.
=55	=55	=55
.	16qqc#/	.
*^	*	*
8r	8ryy	8.b/L	.
(16G/LL	4.AA\	.	.
16F#/J	.	16a/K	.
8E/	.	8.g/	.
8C#/J)	.	.	.
.	.	16e/Jk	.
*v	*v	*	*
!!LO:LB:g=original
=56	=56	=56
8r	8e/L	.
8D\L 8F# 8A	8d/J)	.
8D\J 8F# 8A	8r	.
8r	(16a/LL	f
.	16a/JJ	.
=57	=57	=57
*ped	*	*
8AAA/ 8AA	8a'/L)	.
.	8qa/	.
8A\L 8c#> 8g>	(8gg/	.
*Xped	*	*
8A\ 8c#> 8g>	8.ff#/	.
8A\J 8c#> 8g>	.	.
.	16ee/Jk	.
=58	=58	=58
*ped	*	*
8D\L 8d	8dd'\)	.
8A\ 8d 8f#	4a^^/	.
8A\ 8d 8f#	.	.
*Xped	*	*
8A\J 8d 8f#	(16a/LL	.
.	16a/JJ	.
=59	=59	=59
*ped	*	*
8AA/ 8A	8a'</L)	.
.	8qa/	.
8A\L 8c#> 8g>	(8gg/	.
8A\ 8c#> 8g>	8.ff#/	.
*Xped	*	*
8A\J 8c#> 8g>	.	.
.	16ee/Jk	.
=60	=60	=60
*ped	*	*
8D\L 8d	8dd'\)	.
8A\ 8d 8f#	4a^^/	.
8A\ 8d 8f#	.	.
*Xped	*	*
8A\J 8d 8f#	(16a/LL	.
.	16a/JJ	.
=61	=61	=61
*ped	*	*
8AA/ 8A	8a'/L)	.
.	8qa/	.
8A\L 8c#> 8g>	(8gg/	.
8A\ 8c#> 8g>	8.ff#/	.
*Xped	*	*
8A\J 8c#> 8g>	.	.
.	16ee/Jk	.
=62	=62	=62
*^	*	*
*ped	*	*	*
8GG#X/	8ryy	8dd'\)	.
.	.	(8qdd/	>
(>16B/LL	4.G#X\	(4dd^^\) 4ddd	.
16c#/J	.	.	.
8d/	.	.	.
*Xped	*	*	*
16e/L	.	16cc#\LL 16ccc#	.
16e#X/JJ)	.	16b\JJ) 16bb	]]
*v	*v	*	*
!!LO:LB:g=original
=63	=63	=63
*	*^	*
!LO:TX:t=P:problem=mixed beam	!	!	!
.	.	(<16qqa/	.
8A'>\L 8d 8f#	(8.bb/L	4..a\)	.
8AA'</J	.	.	.
.	16aa/K	.	.
!LO:TX:t=P:problem=mixed beam	!	!	!
8A'>\L 8c# 8gn	8.gg/	.	.
8AA'</J	.	.	.
.	16ee/Jk)	16g\	.
*	*v	*v	*
=64	=64	=64
*^	*	*
8D\ 8d	8ryy	8f#'/ 8dd	.
.	.	(8qdd/	>
*ped	*	*	*
16B/LL	4.G#X\	(4dd^^\) 4ddd	.
16c#/J	.	.	.
8d/	.	.	.
16e/L	.	16cc#\LL 16ccc#	.
*Xped	*	*	*
16e#X/JJ	.	16b\JJ) 16bb	]]
*v	*v	*	*
=65	=65	=65
*	*^	*
!LO:TX:t=P:problem=mixed beam	!	!	!
.	.	(<16qqa/	.
8A'>\L 8d 8f#	(8.bb/L	4..a\)	.
8AA'</J	.	.	.
.	16aa/K	.	.
!LO:TX:t=P:problem=mixed beam	!	!	!
8A'>\L 8c# 8gn	8.gg/	.	.
8AA<'/J	.	.	.
.	16ee/Jk)	16g\	.
*	*v	*v	*
=66	=66	=66
*^	*	*
8DD/ 8D	8ryy	8d/ 8dd	.
*ped	*	*	*
!	!	!	!LO:DY:rj
16B/LL	4.G#X\	(4ffn\ 4fffn	ff >
16c#/J	.	.	.
8d/	.	.	.
16e/L	.	16ee\LL 16eee	.
*Xped	*	*	*
16e#X/JJ	.	16dd\JJ) 16ddd	]]
*v	*v	*	*
=67	=67	=67
*	*^	*
8A'\ 8d 8f#	8dd'\ 8ddd	4ryy	.
8r	(>8a/LsS<	.	.
4AA\ [4A	8.ff#^^/	4g\ 4cc#	.
.	16ee/Jk)	.	.
*	*v	*v	*
=68	=68	=68
(8D/L 8A]	(8g/L 8cc# 8ee	.
8DD/J) 8D	8f#/J) 8dd	.
4r	4r	.
==	==	==
*-	*-	*-
!!!system-decoration: {(s1,s2)}
!!!RDF**kern: < = below
!!!RDF**kern: > = above
!!!ENC: Berenika Jozajtis
!!!END: 2022-12-16
!!!ENC: Marta Chmielewska
!!!END: 2023-07-14
!!!YEC: Copyright 2022 Narodowy Instytut Fryderyka Chopina (https://polishscores.org)
!!!YEM: License CC-BY-4.0 (https://creativecommons.org/licenses/by/4.0)
